X:1
T:Title
%%score { 1 | 2 }
L:1/8
M:4/4
K:E
V:1 treble nm="Grand Piano"
V:2 bass 
V:1
 z4 z2[Q:1/4=100] [G,E][A,EF] | [B,EG][EGB][EAc][EAe] [EGB]GAG |[M:3/4] FF CD E2 |[M:1/4] EF | %4
[M:4/4] GGcc BBF[D=G] | G6 EF | GB[Ec][Ee] BGAG | FFCD E2 [Ec][Ec] | %8
 [EB]>[E^A] [EB][EG] [DF]>[=D^E] [^DF][DG] |[M:3/4] E6 |[M:1/4] Be | %11
[M:4/4] [Fd]2 [DF]2 [DA]2 [Ad][Ac] |[M:3/4] [GB]2 E2 G2 |[M:1/4] DE | %14
[M:4/4] F>^E FG [FA][FB][Ad][DAc] | [EGB]6 [EB][Ee] |[M:3/4] [Fd]2 [DF]2 [DA]2 |[M:1/4] [Ad][Ac] | %18
[M:4/4] [GB]2 E2 G2 DE | F>^E FG [DB][DA][=EG][DF] |[M:3/4] E6 |] %21
V:2
 z4 z2 E,E, | E,E,A,,C, E,[E,B,E][F,B,D][G,B,E] |[M:3/4] [A,C][A,C] [B,,A,B,][B,,A,B,] [E,G,B,]2 | %3
[M:1/4] [E,G,B,][E,A,B,] |[M:4/4] [E,B,E][E,B,E][A,E][A,E] [G,B,E][G,B,E][B,D][B,,B,] | %5
 [E,B,E]6 [E,G,][E,A,E] | [E,B,E][E,G,E][A,,A,][C,A,] [E,G,E][E,B,E][F,B,D][G,B,E] | %7
 [A,C][A,C][B,,A,B,][B,,A,B,] [E,G,B,]2 [A,,A,][A,,A,] | %8
 [B,,G,]>[B,,=G,] [B,,^G,][B,,B,] [B,,B,]>[B,,B,] [B,,A,][B,,B,] |[M:3/4] [E,G,]6 | %10
[M:1/4] [E,G,E][E,G,E] |[M:4/4] [B,,A,]2 [B,,A,]2 [B,,F,]2 [B,,B,][D,B,] | %12
[M:3/4] [E,B,]2 [E,G,]2 [E,B,E]2 |[M:1/4] [A,B,][G,B,] | %14
[M:4/4] [F,B,D]>[F,B,=D] [F,B,^D][E,B,E] [D,B,][D,B,][B,,B,]B,, | E,6 [E,G,][E,G,] | %16
[M:3/4] [B,,A,]2 [B,,A,]2 [B,,F,]2 |[M:1/4] [B,,B,][D,B,] | %18
[M:4/4] [E,B,]2 [E,G,]2 [E,B,E]2 [A,B,][G,B,] | %19
 [F,B,D]>[F,B,=D] [F,B,^D][E,B,E] [B,,A,][B,,F,][B,,B,][B,,A,] |[M:3/4] [E,G,]6 |] %21

